X:1
T:Title
%%score { 1 | 2 }
L:1/8
M:3/4
K:Eb
V:1 treble nm="Grand Piano"
V:2 bass 
V:1
 z2 z2[Q:1/4=112] E2 | G2 G2 G2 | B2 B2 E2 | [EG]2 [EG]2 [DF]2 | E4 E2 | [EA]2 [EA]2 [EA]2 | %6
 [Ec]2 [Ec]2 [Ec]2 | B2 B2 G2 | [DF]4 [DF]2 | G2 G2 G2 | [EA]2 [EA]2 [EA]2 | [EB]2 [EB]2 [E_d]2 | %12
 [Ec]4 [Ec][Ec] | [Ee]2 [Ee]2 [Ed][Ec] | [EB]2 [EB]2 [B,EB][CFA] | [B,EG]2 [B,EG]2 [A,DF]2 | %16
[M:2/4] [G,E]4 |[M:1/4] [EG][FA] |[M:3/4] [GB]2 [GB]2 [GB][GB] | [Ac]2 [GB]2 [GB]2 | %20
 [Ge]2 [Ge]2 [Be][Be] | [Ac]2 [Ge]2 [GB]2 | [Ge]2 [Ge]2 [Bd][Ac] | [GB]2 [GB]2 [CFB][CFA] | %24
 [B,EG]2 [B,EG]2 [A,DF]2 |[M:2/4] [G,E]4 |] %26
V:2
 z2 z2 [E,G,]2 | [E,B,E]2 [E,B,E]2 [E,B,E]2 | [E,G,E]2 [E,G,E]2 [C,G,]2 | %3
 [B,,B,]2 [B,,B,]2 [B,,A,]2 | [E,G,]4 [E,G,]2 | [C,A,]2 [C,A,]2 [C,A,]2 | %6
 [A,,A,]2 [A,,A,]2 [A,,A,]2 | [E,G,E]2 [E,G,E]2 [E,B,E]2 | [B,,B,]4 [B,,B,]2 | %9
 [E,B,E]2 [E,B,E]2 [E,B,E]2 | [C,A,]2 [C,A,]2 [C,A,]2 | [G,,E,]2 [G,,E,]2 [G,,B,]2 | %12
 [A,,A,]4 [A,,A,]2 | [A,,C]2 [A,,C]2 [A,,B,][A,,A,] | [E,G,]2 [E,G,]2 G,,A,, | B,,2 B,,2 B,,2 | %16
[M:2/4] E,4 |[M:1/4] [E,B,]2 |[M:3/4] [E,E]2 [E,E]2 [E,E][E,E] | [E,E]2 [E,E]2 [E,E]2 | %20
 [E,B,]2 [E,B,]2 [G,E][G,E] | [A,E]2 [E,E]2 [E,E]2 | [E,B,]2 [E,B,]2 [E,E][E,E] | %23
 [E,E]2 [E,E]2 A,,A,, | B,,2 B,,2 B,,2 |[M:2/4] E,4 |] %26

